packages/gestalt/src/icons/camera.svg

<svg width="24" height="24" xmlns="http://www.w3.org/2000/svg"><path fill="#B3B3B3" d="M6.36 4.99L8.56 2h6.88l2.2 2.99h3.09c1.8 0 3.27 1.49 3.27 3.33v10.35c0 1.84-1.47 3.33-3.27 3.33H3.27C1.47 22 0 20.51 0 18.67V8.32c0-1.84 1.47-3.33 3.27-3.33h3.09zM12 7.22a5.74 5.74 0 1 0 0 11.48 5.74 5.74 0 0 0 0-11.48m0 2.73c1.66 0 3.01 1.35 3.01 3.01 0 1.66-1.35 3.01-3.01 3.01-1.66 0-3.01-1.35-3.01-3.01 0-1.66 1.35-3.01 3.01-3.01"/></svg>

<svg width="24" height="24" viewBox="0 0 24 24" xmlns="http://www.w3.org/2000/svg" ><path fill="#B3B3B3" d="M6.36,4.99 L8.56,2.00 L15.44,2.00 L17.64,4.99 L20.73,4.99 C22.53,4.99 24.00,6.48 24.00,8.32 L24.00,18.67 C24.00,20.51 22.53,22.00 20.73,22.00 L3.27,22.00 C1.47,22.00 0.00,20.51 0.00,18.67 L0.00,8.32 C0.00,6.48 1.47,4.99 3.27,4.99 L6.36,4.99 Z M12.00,7.22 C8.83,7.22 6.26,9.79 6.26,12.96 C6.26,16.13 8.83,18.70 12.00,18.70 C15.17,18.70 17.74,16.13 17.74,12.96 C17.74,9.79 15.17,7.22 12.00,7.22 M12.00,9.95 C13.66,9.95 15.01,11.30 15.01,12.96 C15.01,14.62 13.66,15.97 12.00,15.97 C10.34,15.97 8.99,14.62 8.99,12.96 C8.99,11.30 10.34,9.95 12.00,9.95"/></svg>
